X: 42082
T: Waltzing Through Dunboyne
R: waltz
M: 3/4
K: Gmajor
D2|:G3 EBA|GE BA GE|c3 B AG|FG EF D2|A3 c BA|G3 B AG|F3 A GE|Ac BA GE|
G3 EBA|GE BA GE|c3 B AG|FG EG D2|c2 B2 AG|E2 AcBA|E2 c2 AF|G4:|
D2 B2 A2 G2|FED|c2 B2 AG|E2 Ac BA|Ec BA GE|c2B2 AG|E2 Ac BA|E2 c2 AF|G4:|

